houdini-css/pictures/twitter.svg

<svg viewBox="328 355 335 276" xmlns="http://www.w3.org/2000/svg"><path d="m630 425a195 195 0 0 1 -299 175 142 142 0 0 0 97-30 70 70 0 0 1 -58-47 70 70 0 0 0 31-2 70 70 0 0 1 -57-66 70 70 0 0 0 28 5 70 70 0 0 1 -18-90 195 195 0 0 0 141 72 67 67 0 0 1 116-62 117 117 0 0 0 43-17 65 65 0 0 1 -31 38 117 117 0 0 0 39-11 65 65 0 0 1 -32 35z" fill="#3ba9ee"/></svg>

<svg viewBox="328 355 335 276" xmlns="http://www.w3.org/2000/svg">
  <path d="
    M 630, 425
    A 195, 195 0 0 1 331, 600
    A 142, 142 0 0 0 428, 570
    A  70,  70 0 0 1 370, 523
    A  70,  70 0 0 0 401, 521
    A  70,  70 0 0 1 344, 455
    A  70,  70 0 0 0 372, 460
    A  70,  70 0 0 1 354, 370
    A 195, 195 0 0 0 495, 442
    A  67,  67 0 0 1 611, 380
    A 117, 117 0 0 0 654, 363
    A  65,  65 0 0 1 623, 401
    A 117, 117 0 0 0 662, 390
    A  65,  65 0 0 1 630, 425
    Z"
    style="fill:#3BA9EE;"/>
</svg>
